outputs/icons/hardware/desktop_round.svg

<svg xmlns="http://www.w3.org/2000/svg" width="1200" height="1200" fill="none"><g clip-path="url(#a)"><path fill="#000" d="M1050 100H150c-55 0-100 45-100 100v600c0 55 45 100 100 100h350v100h-50c-27.5 0-50 22.5-50 50s22.5 50 50 50h300c27.5 0 50-22.5 50-50s-22.5-50-50-50h-50V900h350c55 0 100-45 100-100V200c0-55-45-100-100-100m-50 700H200c-27.5 0-50-22.5-50-50V250c0-27.5 22.5-50 50-50h800c27.5 0 50 22.5 50 50v500c0 27.5-22.5 50-50 50"/></g><defs><clipPath id="a"><path fill="#fff" d="M0 0h1200v1200H0z"/></clipPath></defs></svg>

<svg width="1200" height="1200" viewBox="0 0 1200 1200" fill="none" xmlns="http://www.w3.org/2000/svg"><g clip-path="url(#clip0_238_1279)"><path d="M1050 100H150C95 100 50 145 50 200V800C50 855 95 900 150 900H500V1000H450C422.5 1000 400 1022.5 400 1050C400 1077.5 422.5 1100 450 1100H750C777.5 1100 800 1077.5 800 1050C800 1022.5 777.5 1000 750 1000H700V900H1050C1105 900 1150 855 1150 800V200C1150 145 1105 100 1050 100ZM1000 800H200C172.5 800 150 777.5 150 750V250C150 222.5 172.5 200 200 200H1000C1027.5 200 1050 222.5 1050 250V750C1050 777.5 1027.5 800 1000 800Z" fill="black"/></g><defs><clipPath id="clip0_238_1279"><path width="24" fill="white" d="M0 0H1200V1200H0V0z"/></clipPath></defs></svg>
